svg/regular/bx-align-justify.svg

<svg xmlns="http://www.w3.org/2000/svg" width="24" height="24"><path d="M4 7h16v2H4zm0-4h16v2H4zm0 8h16v2H4zm0 4h16v2H4zm2 4h12v2H6z"/></svg>

<svg xmlns="http://www.w3.org/2000/svg" width="24" height="24" viewBox="0 0 24 24"><path d="M4 7H20V9H4zM4 3H20V5H4zM4 11H20V13H4zM4 15H20V17H4zM6 19H18V21H6z"/></svg>
